modules/coreui-icons-brand/icons/bluetooth.svg

<svg version="1.1" xmlns="http://www.w3.org/2000/svg" width="32" height="32" viewBox="0 0 32 32">
<title>bluetooth</title>
<path d="M20.288 10.694l-2.681 2.681-0.019-5.375 2.7 2.694zM17.587 24.431l2.694-2.694-2.681-2.681zM28 16.212c0 12.85-4.494 15.788-11.569 15.788s-12.431-2.938-12.431-15.788c0-12.85 5.212-16.212 12.288-16.212s11.712 3.369 11.712 16.212zM18.094 16.212l4.962-5.537-7.819-8.394v11.056l-4.613-4.612-1.688 1.681 5.794 5.812-5.794 5.813 1.681 1.681 4.613-4.612 0.144 10.625 7.962-7.969z"></path>
</svg>

<svg xmlns="http://www.w3.org/2000/svg" width="32" height="32" viewBox="0 0 32 32"><path d="M20.288 10.694l-2.681 2.681L17.588 8l2.7 2.694zm-2.701 13.737l2.694-2.694-2.681-2.681zM28 16.212C28 29.062 23.506 32 16.431 32S4 29.062 4 16.212 9.212 0 16.288 0 28 3.369 28 16.212zm-9.906 0l4.962-5.537-7.819-8.394v11.056l-4.613-4.612-1.688 1.681 5.794 5.812-5.794 5.813 1.681 1.681L15.23 19.1l.144 10.625 7.962-7.969z"/></svg>
